X:1
T:Ach Gott von Himmel
T:Balthasar Resinarius
T:Source : DDT 34---Leipzig---Breitkopf & Härtel---J.Wolf---1908. first print : Newe Deudsche Geistliche Gesenge---Wittemberg---G_Rhau---1544. Editor : André Vierendeels (31/07/17).
T:Notes : Original clefs : C1, C3, C4, F4 Original note values have been halved Editorial accidentals above the staff 
T:Ach Gott von Himmel
T:©
T:©
T:©
T:©
C:Balthasar Resinarius
Z:©
%%score [ 1 [ 2 3 ] 4 ]
L:1/8
Q:1/4=121
M:2/2
K:F
V:1 treble nm="Soprano" snm="S"
V:2 treble-8 nm="Tenor 1" snm="T 1"
V:3 treble-8 nm="Tenor 2" snm="T 2"
V:4 bass nm="Bass" snm="B"
V:1
 z8 | A4 B4 | A4 G4 | d3 c B2 AG | A2 F2 GFGA | B4 G2 B2- | BAGF G4 | F4 z2 A2 | B4 A4 | G4 c4 | %10
w: |Ach Gott|von Him-|mel _ _ sieh _|_ _ _ _ _ _||* * * * dar-|ein und|lasz dich|des er-|
w: |Wie we-|nig sind|der _ _ Heil- *|||* * * * gen|dein, ver-|las- sen|sind wir|
 B2 AG A2 G2 | A4 G2 B2- |"^#" BA G4 F2 |1 G8 :|2 G4 z2 G2 || A4 F2 G2 | E4 F2 D2- | D2 C2 DCDE | %18
w: bar- * * * *|||men.|* Dein|Wort man _|läszt nicht ha-||
w: Ar- * * * *||||men. *||||
 F6 ED | C4 z2 F2 | G4 B4 | A4 B4 | G4 F4 | G4 z2 E2 | F2 F2 E4- | E4 z2 G2 | A4 F4 | G4 A4 | %28
w: * ben _|wahr, der|Glaub ist|auch ver-|lo- schen|gar, ver-|lo- schen gar|_ bei|al- len|Men- schen|
w: ||||||||||
 z2 B2 G2 c2- | c2 B2 c4- | c4 B4 | A2 F2 G4 | F8 |] %33
w: Kin- * *||||dern.|
w: |||||
V:2
 A4 B4 | A4 G4 | d4 dcde | f4 g3 g | f4 z4 | d4 G2 B2- | Bc d4 c2 | d2 d2 f3 e | d2 cB c2 A2 | %9
w: Ach Gott|von Him-|mel sieh _ _ _|_ _ dar-|ein,|ach Gott _|_ _ _ von|Him- mel, sieh _|_ _ _ _ dar-|
w: Wie we-|nig sind|der Heil- * * *|* * gen|dein,|wie we- *|* * * nig|sind der Heil- *|* * * * gen|
 d4 z4 | d3 e f2 e2 | f4 d2 d2- | d2 c2 d4- |1 d8 :|2 d2 g3 fed || c8 | c4 A4 | A4 FEFG | A4 D4 | %19
w: ein|und _ _ lasz|dich des er-|* bar- men.|_|* Dein _ _ _|Wort|man läszt|nicht ha- * * *|* ben|
w: dein,|ver- * * las-|sen sind wir|_ Ar- men.|_||||||
 E3 D E2 F2 | E3 F G4 | D4 d4- | d2 d2 d4- | d4 B2 c2- | c2 B2 c4 | c8 | z2 c2 d4 | B4 A4 | %28
w: wahr _ _ _|_ _ _|der Glaub|_ ist auch|_ ver- lo-|* * schen|gar|bei al-|len Men-|
w: |||||||||
 G4 z2 g2 | g6 g2 | a2 f3 eed | f2 d4 c2 | d8 |] %33
w: schen, bei|al- len|Men- schen _ _ _|Kin- * *|dern.|
w: |||||
V:3
 z8 | z8 | A4 B4 | A4 G4 | d4 _e4 | d2 B3 c d2 | G3 A B2 G2 | A8 | z4 A4 | B4 A4 | G4 c4- | c4 B4 | %12
w: ||Ach Gott|von Him-|mel sieh|dar _ _ _|_ _ _ _|ein|und|lasz dich|des er-||
w: ||Wie we-|nig sind|der Heil-|gen _ _ _|_ _ _ _|dein,|ver-|las- sen|sind wir|_ Ar-|
 G4 A4 |1 G8 :|2 G8 || z4 z2 G2 | A4 F4 | E4 D4- | D2 F4 G2 | A8 | z8 | z2 F2 G4 | B4 A4 | B4 G4 | %24
w: bar- *|men.||Dein|Wort man|läszt nicht|_ ha- ben|wahr,||der Glaub|ist auch|ver- lo-|
w: ||men.||||||||||
 F4 G4 | G8 | z8 | z2 G2 d4 | B4 c4 | d4 c3 B | c2 A2 B2 G2 | A4 B2 G2 | A8 |] %33
w: * schen|gar||bei al-|len men-|schen Kin- *|||dern.|
w: |||||||||
V:4
 z8 | z8 | z8 | D,4 E,4 | D,4 C,4 | G,8 | G,4 E,4 | D,8 | z8 | G,4 F,4 | G,4 F,2 C,2 | %11
w: |||Ach Gott|von Him-|mel|sieh dar-|ein,||und lasz|dich des er-|
w: |||Wie we-|nig sind|der|Heil- gen|dein,||ver- las-|sen sind wir|
"^b" F,4 G,F,E,D, |"^b" E,4 D,4 |1 z8 :|2 z2 G,2 E,2 C,2 || F,4 z2 C,2 | C,2 A,,2 D,4 | %17
w: bar- * * * *|* men.||Dein Wort man|läszt nicht|ha- ben wahr,|
w: Ar- * * * *|* men.|||||
 A,,4 A,3 G, | F,E, D,4 C,B,, | A,,3 B,, C,2 D,2 | C,3 B,, G,,4 | D,4 G,4- | G,2 G,2 D,4 | %23
w: dein Wort _|_ _ _ man _|läszt _ _ nicht|ha- ben xahr,|der Glaub|_ ist auch|
w: ||||||
 G,F,E,D, E,4 | D,4 C,4 | C,8 | z8 | z8 | z4 C,4 | G,4 E,4 | F,4 G,4 |"^b" F,4 E,4 | D,8 |] %33
w: ver _ _ _ _|lo- schen|gar|||bei|al- len|men- schen|Kin- *|dern|
w: ||||||||||

